public/style/workarea/images/icons/exe-preview-icon-white.svg

<svg fill="none" height="16" viewBox="0 0 17 16" width="17" xmlns="http://www.w3.org/2000/svg" xmlns:xlink="http://www.w3.org/1999/xlink"><clipPath id="a"><path d="m.985352 0h16v16h-16z"/></clipPath><g clip-path="url(#a)" stroke="#fff" stroke-linecap="round" stroke-linejoin="round" stroke-width="1.5"><path d="m2.02441 8.0597s2.56111-5.1222 7.04303-5.1222c4.48196 0 7.04306 5.1222 7.04306 5.1222s-2.5611 5.1222-7.04306 5.1222c-4.48192 0-7.04303-5.1222-7.04303-5.1222z"/><path d="m8.98535 10c1.10455 0 2.00005-.89543 2.00005-2s-.8955-2-2.00005-2c-1.10457 0-2 .89543-2 2s.89543 2 2 2z"/></g></svg>

<svg width="17" height="16" viewBox="0 0 17 16" fill="none" xmlns="http://www.w3.org/2000/svg">
<g clip-path="url(#clip0_14_350)">
<path d="M2.02441 8.0597C2.02441 8.0597 4.58552 2.9375 9.06744 2.9375C13.5494 2.9375 16.1105 8.0597 16.1105 8.0597C16.1105 8.0597 13.5494 13.1819 9.06744 13.1819C4.58552 13.1819 2.02441 8.0597 2.02441 8.0597Z" stroke="white" stroke-width="1.5" stroke-linecap="round" stroke-linejoin="round"/>
<path d="M8.98535 10C10.0899 10 10.9854 9.10457 10.9854 8C10.9854 6.89543 10.0899 6 8.98535 6C7.88078 6 6.98535 6.89543 6.98535 8C6.98535 9.10457 7.88078 10 8.98535 10Z" stroke="white" stroke-width="1.5" stroke-linecap="round" stroke-linejoin="round"/>
</g>
<defs>
<clipPath id="clip0_14_350">
<rect width="16" height="16" fill="white" transform="translate(0.985352)"/>
</clipPath>
</defs>
</svg>
